images/avatar-1.svg

<svg width="1080" height="1080" viewBox="0 0 1080 1080" fill="none"
    xmlns="http://www.w3.org/2000/svg">
    <g id="avatar-1" filter="url(#filter0_d_47_44)">
        <g id="body-1">
            <g id="legs">
                <path id="legs_2" d="M567.82 926.66C555.48 1011.35 586.41 1024.24 618.98 1028.99C651.55 1033.74 670.91 1021.68 681.53 959.26C695.89 874.89 660.77 786.61 649.13 781.9C618.62 769.54 580.15 842 567.82 926.66Z" fill="#F68B62" stroke="#F68B62" stroke-width="8" stroke-linecap="round" stroke-linejoin="round"/>
                <path id="legs_3" d="M512.18 926.66C524.52 1011.35 493.59 1024.24 461.02 1028.99C428.45 1033.74 409.09 1021.68 398.47 959.26C384.11 874.89 419.23 786.61 430.87 781.9C461.38 769.54 499.85 842 512.18 926.66Z" fill="#F68B62" stroke="#F68B62" stroke-width="8" stroke-linecap="round" stroke-linejoin="round"/>
            </g>
            <g id="arms">
                <path id="arms_2" d="M412.78 715.53C361.62 784.14 330.64 771.38 304.25 751.71C277.86 732.04 272.7 709.82 309.32 658.17C358.82 588.36 446.08 550.78 457.64 555.67C488 568.5 463.94 646.92 412.78 715.53Z" fill="#F68B62" stroke="#F68B62" stroke-width="8" stroke-linecap="round" stroke-linejoin="round"/>
                <path id="arms_3" d="M667.22 715.53C718.38 784.14 749.36 771.38 775.75 751.71C802.14 732.04 807.3 709.82 770.68 658.17C721.18 588.36 633.92 550.78 622.36 555.67C592.05 568.5 616.06 646.92 667.22 715.53Z" fill="#F68B62" stroke="#F68B62" stroke-width="8" stroke-linecap="round" stroke-linejoin="round"/>
            </g>
            <path id="torso" d="M692.67 667C674.92 590.05 621.58 532.3 540 532.3C458.42 532.3 405.08 590.09 387.33 667C377.18 711 377.23 760.7 404.63 797.81C427.03 828.14 461.91 845.71 498.4 852.56C525.912 857.52 554.088 857.52 581.6 852.56C618.09 845.71 652.97 828.14 675.37 797.81C702.77 760.74 702.82 711 692.67 667Z" fill="white" stroke="#F68B62" stroke-width="8" stroke-linecap="round" stroke-linejoin="round"/>
        </g>
        <path id="face-1" d="M327.68 373.36C329.024 384.376 327.465 395.552 323.16 405.78C319.06 415.406 316.932 425.757 316.9 436.22C316.9 507.46 416.78 565.22 540 565.22C663.22 565.22 763.1 507.48 763.1 436.22C763.068 425.757 760.94 415.406 756.84 405.78C752.551 395.754 750.964 384.78 752.24 373.95C753.498 363.921 754.049 353.816 753.89 343.71C753.141 287.361 730.133 233.595 689.886 194.149C649.64 154.702 595.423 132.777 539.07 133.16C421.36 133.66 326.07 229.24 326.07 347.07C326.074 355.858 326.612 364.637 327.68 373.36Z" fill="white" stroke="#F68B62" stroke-width="8" stroke-linecap="round" stroke-linejoin="round"/>
        <g id="ears-1">
            <path id="ears" d="M725.04 290.38C770.67 290.38 807.66 252.257 807.66 205.23C807.66 158.203 770.67 120.08 725.04 120.08C679.41 120.08 642.42 158.203 642.42 205.23C642.42 252.257 679.41 290.38 725.04 290.38Z" fill="#F68B62" stroke="#F68B62" stroke-width="8" stroke-linecap="round" stroke-linejoin="round"/>
            <path id="ears_2" d="M354.96 290.38C400.59 290.38 437.58 252.257 437.58 205.23C437.58 158.203 400.59 120.08 354.96 120.08C309.33 120.08 272.34 158.203 272.34 205.23C272.34 252.257 309.33 290.38 354.96 290.38Z" fill="#F68B62" stroke="#F68B62" stroke-width="8" stroke-linecap="round" stroke-linejoin="round"/>
        </g>
        <g id="eyes-1">
            <path id="Vector" d="M685.201 414.576C691.583 390.739 672.331 364.875 642.199 356.807C612.068 348.739 582.467 361.522 576.085 385.358C569.702 409.195 588.955 435.058 619.086 443.127C649.218 451.195 678.818 438.412 685.201 414.576Z" fill="#F68B62" stroke="#F68B62" stroke-width="8" stroke-linecap="round" stroke-linejoin="round"/>
            <path id="Vector_2" d="M607.44 390.67C613.725 390.67 618.82 386.52 618.82 381.4C618.82 376.28 613.725 372.13 607.44 372.13C601.155 372.13 596.06 376.28 596.06 381.4C596.06 386.52 601.155 390.67 607.44 390.67Z" fill="white" stroke="#F68B62" stroke-width="8" stroke-linecap="round" stroke-linejoin="round"/>
            <path id="Vector_3" d="M460.942 443.09C491.074 435.022 510.326 409.158 503.944 385.322C497.561 361.485 467.961 348.703 437.829 356.771C407.698 364.839 388.445 390.702 394.828 414.539C401.21 438.375 430.811 451.158 460.942 443.09Z" fill="#F68B62" stroke="#F68B62" stroke-width="8" stroke-linecap="round" stroke-linejoin="round"/>
            <path id="Vector_4" d="M472.56 390.67C478.845 390.67 483.94 386.52 483.94 381.4C483.94 376.28 478.845 372.13 472.56 372.13C466.275 372.13 461.18 376.28 461.18 381.4C461.18 386.52 466.275 390.67 472.56 390.67Z" fill="white" stroke="#F68B62" stroke-width="8" stroke-linecap="round" stroke-linejoin="round"/>
            <path id="mouth" d="M556.86 469.51C556.3 471.95 554.58 473.04 551.43 473.92C548.75 474.67 545.3 474.6 543.14 472.99C542.152 472.21 541.356 471.214 540.811 470.079C540.267 468.943 539.99 467.699 540 466.44V466.57C540.01 467.829 539.732 469.073 539.188 470.208C538.643 471.343 537.847 472.339 536.86 473.12C534.7 474.73 531.25 474.8 528.57 474.05C525.42 473.17 523.7 472.05 523.14 469.63" stroke="#F68B62" stroke-width="8" stroke-linecap="round" stroke-linejoin="round"/>
            <path id="nose" d="M551.49 452.29C551.49 455.08 546.35 460.65 540 460.65C533.65 460.65 528.51 455.08 528.51 452.29C528.51 448.06 533.65 444.63 540 444.63C546.35 444.63 551.49 448.06 551.49 452.29Z" fill="white" stroke="#F68B62" stroke-width="8" stroke-linecap="round" stroke-linejoin="round"/>
        </g>
    </g>
</svg>

<svg id="panda_1" data-name="panda 1" xmlns="http://www.w3.org/2000/svg" viewBox="0 0 1080 1080"><defs><style>.cls-1{fill:#f68b62;}.cls-1,.cls-2,.cls-3{stroke:#f68b62;stroke-linecap:round;stroke-linejoin:round;stroke-width:8px;}.cls-2{fill:#fff;}.cls-3{fill:none;}</style></defs><g id="body-1"><g id="legs"><path class="cls-1" d="M567.82,926.66c-12.34,84.69,18.59,97.58,51.16,102.33s51.93-7.31,62.55-69.73c14.36-84.37-20.76-172.65-32.4-177.36C618.62,769.54,580.15,842,567.82,926.66Z"/><path class="cls-1" d="M512.18,926.66c12.34,84.69-18.59,97.58-51.16,102.33s-51.93-7.31-62.55-69.73c-14.36-84.37,20.76-172.65,32.4-177.36C461.38,769.54,499.85,842,512.18,926.66Z"/></g><g id="arms"><path class="cls-1" d="M412.78,715.53c-51.16,68.61-82.14,55.85-108.53,36.18s-31.55-41.89,5.07-93.54c49.5-69.81,136.76-107.39,148.32-102.5C488,568.5,463.94,646.92,412.78,715.53Z"/><path class="cls-1" d="M667.22,715.53c51.16,68.61,82.14,55.85,108.53,36.18s31.55-41.89-5.07-93.54c-49.5-69.81-136.76-107.39-148.32-102.5C592.05,568.5,616.06,646.92,667.22,715.53Z"/></g><path id="torso" class="cls-2" d="M695.67,667c-18.11-76.95-72.49-134.7-155.67-134.7S402.44,590.09,384.33,667C374,711,374,760.74,402,797.85c22.83,30.33,58.4,47.9,95.6,54.75a243.72,243.72,0,0,0,84.84,0c37.2-6.85,72.77-24.42,95.6-54.75C706,760.74,706,711,695.67,667Z"/></g><g id="ears-1"><ellipse class="cls-1" cx="725.04" cy="205.23" rx="82.62" ry="85.15"/><ellipse class="cls-1" cx="354.96" cy="205.23" rx="82.62" ry="85.15"/></g><path id="face-1" class="cls-2" d="M327.68,373.36a63.69,63.69,0,0,1-4.52,32.42,78.29,78.29,0,0,0-6.26,30.44c0,71.24,99.88,129,223.1,129s223.1-57.74,223.1-129a78.29,78.29,0,0,0-6.26-30.44,62.37,62.37,0,0,1-4.6-31.83,215.76,215.76,0,0,0,1.65-30.24A213.39,213.39,0,0,0,539.07,133.16c-117.71.5-213,96.08-213,213.91A217.18,217.18,0,0,0,327.68,373.36Z"/><g id="eyes-1"><g id="eyes"><ellipse class="cls-1" cx="630.63" cy="399.95" rx="44.68" ry="56.48" transform="matrix(0.26, -0.97, 0.97, 0.26, 81.19, 905.69)"/><ellipse class="cls-2" cx="607.44" cy="381.4" rx="11.38" ry="9.27"/><ellipse class="cls-1" cx="449.37" cy="399.95" rx="56.48" ry="44.68" transform="translate(-88.14 129.82) rotate(-14.99)"/><ellipse class="cls-2" cx="472.56" cy="381.4" rx="11.38" ry="9.27"/></g><path id="mouth" class="cls-3" d="M556.86,472.51c-.56,2.44-2.28,3.53-5.43,4.41-2.68.75-6.13.68-8.29-.93a8.26,8.26,0,0,1-3.14-6.55v.13a8.27,8.27,0,0,1-3.14,6.55c-2.16,1.61-5.61,1.68-8.29.93-3.15-.88-4.87-2-5.43-4.42"/><path id="nose" class="cls-2" d="M551.49,452.29c0,2.79-5.14,8.36-11.49,8.36s-11.49-5.57-11.49-8.36c0-4.23,5.14-7.66,11.49-7.66S551.49,448.06,551.49,452.29Z"/></g></svg>
